X: 451
T: Calico
B: jims roots
M:2/2
L:1/8
Q: 1/2=100
K:Gmix
V:1 
|:fe | "G"dBAB dBGB | AGGG E2fe | dBAB dBGB | AGGG G2fe |
dBAB dBGB | AGGG E2GE | DDE^F GGBG | "D"AGGG "G"G2 ||
GE | "G"DDEF GGBG | GBAG EEGE | DDEF GGBG | AGGG G2 |
"G"DDEF GGBG | GBAG EEGE | DDEF GGBG | "D"AGGG "G"G2 :|
% abcbook-tune_id 6298c2459c23eacd72763e29


% abcbook-boost 0
% abcbook-tablature 
% abcbook-transpose 
% abcbook-lastupdated 1654178373603
% abcbook-soundfonts 
% abcbook-repeats 1


